packages/ffe-icons/icons/filled/lg/hallway.svg

<svg xmlns="http://www.w3.org/2000/svg" height="40" viewBox="0 -960 960 960" width="40"><path d="M202.565-100.001q-25.846 0-44.205-18.359-18.359-18.359-18.359-44.205v-554.87q0-25.846 18.359-44.205 18.359-18.359 44.205-18.359h135.539l120.383-120.383q9.616-9.359 22.051-9.359 12.436 0 21.795 9.359l121.05 120.383h134.052q25.846 0 44.205 18.359 18.359 18.359 18.359 44.205v554.87q0 25.846-18.359 44.205-18.359 18.359-44.205 18.359h-554.87Zm245.179-171.384-68.923-90.768q-4.949-6.025-12.372-6.025t-12.371 6.41l-66.871 87.306q-6.41 8.154-1.795 16.513 4.616 8.359 13.975 8.359h365.791q9.359 0 13.769-8.359t-1.205-16.513l-99.179-133.717q-5.205-6.153-12.692-6.153t-12.436 6.153L447.744-271.385Zm-50.821-508.614h166.974l-83.487-83.487-83.487 83.487Z"/></svg>

<svg xmlns="http://www.w3.org/2000/svg" viewBox="0 -960 960 960" width="32" height="32"><path d="M202.57-100q-25.85 0-44.21-18.36T140-162.57v-554.86q0-25.85 18.36-44.21T202.57-780H338.1l120.39-120.38q9.61-9.36 22.05-9.36 12.43 0 21.79 9.36L623.38-780h134.05q25.85 0 44.21 18.36T820-717.43v554.86q0 25.85-18.36 44.21T757.43-100H202.57Zm245.17-171.38-68.92-90.77q-4.95-6.03-12.37-6.03-7.42 0-12.37 6.41l-66.87 87.31q-6.41 8.15-1.8 16.51 4.62 8.36 13.98 8.36h365.79q9.36 0 13.77-8.36t-1.21-16.51l-99.18-133.72q-5.2-6.15-12.69-6.15-7.49 0-12.43 6.15l-105.7 136.8ZM396.92-780H563.9l-83.49-83.49L396.92-780Z"/></svg>
